icon/fa/land-mine-on.svg

<svg xmlns="http://www.w3.org/2000/svg" viewBox="0 0 576 512"><!--! Font Awesome Free 6.1.2 by @fontawesome - https://fontawesome.com License - https://fontawesome.com/license/free (Icons: CC BY 4.0, Fonts: SIL OFL 1.1, Code: MIT License) Copyright 2022 Fonticons, Inc.--><path d="M312 168c0 13.3-10.7 24-24 24s-24-10.7-24-24V24c0-13.25 10.7-24 24-24s24 10.75 24 24v144zM160 320c0-17.7 14.3-32 32-32h192c17.7 0 32 14.3 32 32v32H160v-32zm-77.26 90.5c8.13-16.2 24.76-26.5 42.96-26.5h324.6c18.2 0 34.8 10.3 43 26.5l27.5 55.2c10.7 20.4-4.8 46.3-28.6 46.3H83.78c-23.79 0-39.26-25.9-28.62-46.3l27.58-55.2zM4.269 138.3c7.541-10.9 22.501-13.6 33.391-6l104.04 72c10.9 7.5 13.6 22.5 6 33.4-7.5 10.9-22.5 13.6-33.4 6l-103.96-72c-10.897-7.5-13.615-22.5-6.071-33.4zm534.031-6c10.9-7.6 25.9-4.9 33.4 6 7.6 10.9 4.9 25.9-6 33.4l-104 72c-10.9 7.6-25.9 4.9-33.4-6-7.6-10.9-4.9-25.9 6-33.4l104-72z"/></svg>

<svg xmlns="http://www.w3.org/2000/svg" viewBox="0 0 576 512" height="1em" width="1em">
<!--! Font Awesome Free 6.1.2 by @fontawesome - https://fontawesome.com License - https://fontawesome.com/license/free (Icons: CC BY 4.0, Fonts: SIL OFL 1.1, Code: MIT License) Copyright 2022 Fonticons, Inc.-->
  <path d="M312 168C312 181.3 301.3 192 288 192C274.7 192 264 181.3 264 168V24C264 10.75 274.7 0 288 0C301.3 0 312 10.75 312 24V168zM160 320C160 302.3 174.3 288 192 288H384C401.7 288 416 302.3 416 320V352H160V320zM82.74 410.5C90.87 394.3 107.5 384 125.7 384H450.3C468.5 384 485.1 394.3 493.3 410.5L520.8 465.7C531.5 486.1 516 512 492.2 512H83.78C59.99 512 44.52 486.1 55.16 465.7L82.74 410.5zM4.269 138.3C11.81 127.4 26.77 124.7 37.66 132.3L141.7 204.3C152.6 211.8 155.3 226.8 147.7 237.7C140.2 248.6 125.2 251.3 114.3 243.7L10.34 171.7C-.5568 164.2-3.275 149.2 4.269 138.3V138.3zM538.3 132.3C549.2 124.7 564.2 127.4 571.7 138.3C579.3 149.2 576.6 164.2 565.7 171.7L461.7 243.7C450.8 251.3 435.8 248.6 428.3 237.7C420.7 226.8 423.4 211.8 434.3 204.3L538.3 132.3z"/>
</svg>
